static/img/kroki/4d01ce0d4182b6e3cf4ef3ebba2fb745.svg

<?xml version="1.0" encoding="us-ascii" standalone="no"?><svg xmlns="http://www.w3.org/2000/svg" xmlns:xlink="http://www.w3.org/1999/xlink" contentStyleType="text/css" height="895px" preserveAspectRatio="none" style="width:365px;height:895px;" version="1.1" viewBox="0 0 365 895" width="365px" zoomAndPan="magnify"><defs/><g><!--class azure_compute_disk_type--><g id="elem_azure_compute_disk_type"><rect codeLine="23" fill="#3D176E" height="39.7891" id="azure_compute_disk_type" rx="2.5" ry="2.5" style="stroke:#000D19;stroke-width:0.5;" width="258" x="25" y="849.73"/><ellipse cx="40" cy="869.6245" fill="#ADD1B2" rx="11" ry="11" style="stroke:#181818;stroke-width:1.0;"/><path d="M42.9688,875.2652 Q42.3906,875.562 41.75,875.7027 Q41.1094,875.8589 40.4063,875.8589 Q37.9063,875.8589 36.5781,874.2183 Q35.2656,872.562 35.2656,869.437 Q35.2656,866.312 36.5781,864.6558 Q37.9063,862.9995 40.4063,862.9995 Q41.1094,862.9995 41.75,863.1558 Q42.4063,863.312 42.9688,863.6089 L42.9688,866.3277 Q42.3438,865.7495 41.75,865.4839 Q41.1563,865.2027 40.5313,865.2027 Q39.1875,865.2027 38.5,866.2808 Q37.8125,867.3433 37.8125,869.437 Q37.8125,871.5308 38.5,872.6089 Q39.1875,873.6714 40.5313,873.6714 Q41.1563,873.6714 41.75,873.4058 Q42.3438,873.1245 42.9688,872.5464 L42.9688,875.2652 Z " fill="#000000"/><text fill="#D9B8FF" font-family="Helvetica" font-size="17" lengthAdjust="spacing" textLength="216" x="59" y="875.5098">azure_compute_disk_type</text></g><!--class microsoft_resource--><g id="elem_microsoft_resource"><rect codeLine="26" fill="#3D176E" height="39.7891" id="microsoft_resource" rx="2.5" ry="2.5" style="stroke:#000D19;stroke-width:0.5;" width="200" x="7" y="267.57"/><ellipse cx="22" cy="287.4645" fill="#ADD1B2" rx="11" ry="11" style="stroke:#181818;stroke-width:1.0;"/><path d="M24.9688,293.1052 Q24.3906,293.402 23.75,293.5427 Q23.1094,293.6989 22.4063,293.6989 Q19.9063,293.6989 18.5781,292.0583 Q17.2656,290.402 17.2656,287.277 Q17.2656,284.152 18.5781,282.4958 Q19.9063,280.8395 22.4063,280.8395 Q23.1094,280.8395 23.75,280.9958 Q24.4063,281.152 24.9688,281.4489 L24.9688,284.1677 Q24.3438,283.5895 23.75,283.3239 Q23.1563,283.0427 22.5313,283.0427 Q21.1875,283.0427 20.5,284.1208 Q19.8125,285.1833 19.8125,287.277 Q19.8125,289.3708 20.5,290.4489 Q21.1875,291.5114 22.5313,291.5114 Q23.1563,291.5114 23.75,291.2458 Q24.3438,290.9645 24.9688,290.3864 L24.9688,293.1052 Z " fill="#000000"/><text fill="#D9B8FF" font-family="Helvetica" font-size="17" lengthAdjust="spacing" textLength="158" x="41" y="293.3498">microsoft_resource</text></g><!--class phantom_resource--><g id="elem_phantom_resource"><rect codeLine="29" fill="#3D176E" height="39.7891" id="phantom_resource" rx="2.5" ry="2.5" style="stroke:#000D19;stroke-width:0.5;" width="198" x="160" y="167.79"/><ellipse cx="175" cy="187.6845" fill="#ADD1B2" rx="11" ry="11" style="stroke:#181818;stroke-width:1.0;"/><path d="M177.9688,193.3252 Q177.3906,193.622 176.75,193.7627 Q176.1094,193.9189 175.4063,193.9189 Q172.9063,193.9189 171.5781,192.2783 Q170.2656,190.622 170.2656,187.497 Q170.2656,184.372 171.5781,182.7158 Q172.9063,181.0595 175.4063,181.0595 Q176.1094,181.0595 176.75,181.2158 Q177.4063,181.372 177.9688,181.6689 L177.9688,184.3877 Q177.3438,183.8095 176.75,183.5439 Q176.1563,183.2627 175.5313,183.2627 Q174.1875,183.2627 173.5,184.3408 Q172.8125,185.4033 172.8125,187.497 Q172.8125,189.5908 173.5,190.6689 Q174.1875,191.7314 175.5313,191.7314 Q176.1563,191.7314 176.75,191.4658 Q177.3438,191.1845 177.9688,190.6064 L177.9688,193.3252 Z " fill="#000000"/><text fill="#D9B8FF" font-family="Helvetica" font-size="17" lengthAdjust="spacing" textLength="156" x="194" y="193.5698">phantom_resource</text></g><!--class quota--><g id="elem_quota"><rect codeLine="32" fill="#3D176E" height="39.7891" id="quota" rx="2.5" ry="2.5" style="stroke:#000D19;stroke-width:0.5;" width="90" x="214" y="367.36"/><ellipse cx="229" cy="387.2545" fill="#ADD1B2" rx="11" ry="11" style="stroke:#181818;stroke-width:1.0;"/><path d="M231.9688,392.8952 Q231.3906,393.192 230.75,393.3327 Q230.1094,393.4889 229.4063,393.4889 Q226.9063,393.4889 225.5781,391.8483 Q224.2656,390.192 224.2656,387.067 Q224.2656,383.942 225.5781,382.2858 Q226.9063,380.6295 229.4063,380.6295 Q230.1094,380.6295 230.75,380.7858 Q231.4063,380.942 231.9688,381.2389 L231.9688,383.9577 Q231.3438,383.3795 230.75,383.1139 Q230.1563,382.8327 229.5313,382.8327 Q228.1875,382.8327 227.5,383.9108 Q226.8125,384.9733 226.8125,387.067 Q226.8125,389.1608 227.5,390.2389 Q228.1875,391.3014 229.5313,391.3014 Q230.1563,391.3014 230.75,391.0358 Q231.3438,390.7545 231.9688,390.1764 L231.9688,392.8952 Z " fill="#000000"/><text fill="#D9B8FF" font-family="Helvetica" font-size="17" lengthAdjust="spacing" textLength="48" x="248" y="393.1398">quota</text></g><!--class resource--><g id="elem_resource"><rect codeLine="35" fill="#3D176E" height="39.7891" id="resource" rx="2.5" ry="2.5" style="stroke:#000D19;stroke-width:0.5;" width="113" x="85.5" y="7"/><ellipse cx="100.5" cy="26.8945" fill="#ADD1B2" rx="11" ry="11" style="stroke:#181818;stroke-width:1.0;"/><path d="M103.4688,32.5352 Q102.8906,32.832 102.25,32.9727 Q101.6094,33.1289 100.9063,33.1289 Q98.4063,33.1289 97.0781,31.4883 Q95.7656,29.832 95.7656,26.707 Q95.7656,23.582 97.0781,21.9258 Q98.4063,20.2695 100.9063,20.2695 Q101.6094,20.2695 102.25,20.4258 Q102.9063,20.582 103.4688,20.8789 L103.4688,23.5977 Q102.8438,23.0195 102.25,22.7539 Q101.6563,22.4727 101.0313,22.4727 Q99.6875,22.4727 99,23.5508 Q98.3125,24.6133 98.3125,26.707 Q98.3125,28.8008 99,29.8789 Q99.6875,30.9414 101.0313,30.9414 Q101.6563,30.9414 102.25,30.6758 Q102.8438,30.3945 103.4688,29.8164 L103.4688,32.5352 Z " fill="#000000"/><text fill="#D9B8FF" font-family="Helvetica" font-size="17" lengthAdjust="spacing" textLength="71" x="119.5" y="32.7798">resource</text></g><!--class type--><g id="elem_type"><rect codeLine="38" fill="#3D176E" height="39.7891" id="type" rx="2.5" ry="2.5" style="stroke:#000D19;stroke-width:0.5;" width="79" x="210.5" y="528.15"/><ellipse cx="225.5" cy="548.0445" fill="#ADD1B2" rx="11" ry="11" style="stroke:#181818;stroke-width:1.0;"/><path d="M228.4688,553.6852 Q227.8906,553.982 227.25,554.1227 Q226.6094,554.2789 225.9063,554.2789 Q223.4063,554.2789 222.0781,552.6383 Q220.7656,550.982 220.7656,547.857 Q220.7656,544.732 222.0781,543.0758 Q223.4063,541.4195 225.9063,541.4195 Q226.6094,541.4195 227.25,541.5758 Q227.9063,541.732 228.4688,542.0289 L228.4688,544.7477 Q227.8438,544.1695 227.25,543.9039 Q226.6563,543.6227 226.0313,543.6227 Q224.6875,543.6227 224,544.7008 Q223.3125,545.7633 223.3125,547.857 Q223.3125,549.9508 224,551.0289 Q224.6875,552.0914 226.0313,552.0914 Q226.6563,552.0914 227.25,551.8258 Q227.8438,551.5445 228.4688,550.9664 L228.4688,553.6852 Z " fill="#000000"/><text fill="#D9B8FF" font-family="Helvetica" font-size="17" lengthAdjust="spacing" textLength="37" x="244.5" y="553.9298">type</text></g><!--class volume_type--><g id="elem_volume_type"><rect codeLine="41" fill="#3D176E" height="39.7891" id="volume_type" rx="2.5" ry="2.5" style="stroke:#000D19;stroke-width:0.5;" width="151" x="171.5" y="688.94"/><ellipse cx="186.5" cy="708.8345" fill="#ADD1B2" rx="11" ry="11" style="stroke:#181818;stroke-width:1.0;"/><path d="M189.4688,714.4752 Q188.8906,714.772 188.25,714.9127 Q187.6094,715.0689 186.9063,715.0689 Q184.4063,715.0689 183.0781,713.4283 Q181.7656,711.772 181.7656,708.647 Q181.7656,705.522 183.0781,703.8658 Q184.4063,702.2095 186.9063,702.2095 Q187.6094,702.2095 188.25,702.3658 Q188.9063,702.522 189.4688,702.8189 L189.4688,705.5377 Q188.8438,704.9595 188.25,704.6939 Q187.6563,704.4127 187.0313,704.4127 Q185.6875,704.4127 185,705.4908 Q184.3125,706.5533 184.3125,708.647 Q184.3125,710.7408 185,711.8189 Q185.6875,712.8814 187.0313,712.8814 Q187.6563,712.8814 188.25,712.6158 Q188.8438,712.3345 189.4688,711.7564 L189.4688,714.4752 Z " fill="#000000"/><text fill="#D9B8FF" font-family="Helvetica" font-size="17" lengthAdjust="spacing" textLength="109" x="205.5" y="714.7198">volume_type</text></g><!--reverse link microsoft_resource to azure_compute_disk_type--><g id="link_microsoft_resource_azure_compute_disk_type"><path codeLine="44" d="M111.0369,325.6408 C114.4869,358.3708 119,409.01 119,467.15 C119,467.15 119,467.15 119,709.84 C119,761.21 136.69,819.8 146.92,849.37 " fill="none" id="microsoft_resource-backto-azure_compute_disk_type" style="stroke:#FFAF37;stroke-width:2.0;"/><polygon fill="none" points="109.15,307.74,105.0699,326.2698,117.0038,325.0119,109.15,307.74" style="stroke:#FFAF37;stroke-width:2.0;"/></g><!--reverse link volume_type to azure_compute_disk_type--><g id="link_volume_type_azure_compute_disk_type"><path codeLine="45" d="M226.685,744.5232 C208.815,775.0432 183.16,818.84 165.26,849.4 " fill="none" id="volume_type-backto-azure_compute_disk_type" style="stroke:#FFAF37;stroke-width:2.0;"/><polygon fill="none" points="235.78,728.99,221.5073,741.4916,231.8628,747.5549,235.78,728.99" style="stroke:#FFAF37;stroke-width:2.0;"/></g><!--reverse link resource to microsoft_resource--><g id="link_resource_microsoft_resource"><path codeLine="46" d="M137.0148,64.7372 C130.5548,112.4472 116.14,218.97 109.62,267.08 " fill="none" id="resource-backto-microsoft_resource" style="stroke:#FFAF37;stroke-width:2.0;"/><polygon fill="none" points="139.43,46.9,131.0691,63.9322,142.9606,65.5423,139.43,46.9" style="stroke:#FFAF37;stroke-width:2.0;"/></g><!--reverse link resource to phantom_resource--><g id="link_resource_phantom_resource"><path codeLine="47" d="M166.7881,61.5306 C189.2781,92.0506 222.32,136.9 244.84,167.46 " fill="none" id="resource-backto-phantom_resource" style="stroke:#FFAF37;stroke-width:2.0;"/><polygon fill="none" points="156.11,47.04,161.9579,65.09,171.6183,57.9713,156.11,47.04" style="stroke:#FFAF37;stroke-width:2.0;"/></g><!--reverse link phantom_resource to quota--><g id="link_phantom_resource_quota"><path codeLine="48" d="M259,225.98 C259,263.76 259,329.04 259,366.88 " fill="none" id="phantom_resource-backto-quota" style="stroke:#FFAF37;stroke-width:2.0;"/><polygon fill="none" points="259,207.98,253,225.98,265,225.98,259,207.98" style="stroke:#FFAF37;stroke-width:2.0;"/></g><!--reverse link quota to type--><g id="link_quota_type"><path codeLine="49" d="M256.8913,425.3812 C255.1613,455.9012 252.82,497.26 251.09,527.83 " fill="none" id="quota-backto-type" style="stroke:#FFAF37;stroke-width:2.0;"/><polygon fill="none" points="257.91,407.41,250.9009,425.0416,262.8817,425.7207,257.91,407.41" style="stroke:#FFAF37;stroke-width:2.0;"/></g><!--reverse link type to volume_type--><g id="link_type_volume_type"><path codeLine="50" d="M249.298,586.1968 C248.718,616.7168 247.94,658.05 247.36,688.61 " fill="none" id="type-backto-volume_type" style="stroke:#FFAF37;stroke-width:2.0;"/><polygon fill="none" points="249.64,568.2,243.2991,586.0827,255.2969,586.3108,249.64,568.2" style="stroke:#FFAF37;stroke-width:2.0;"/></g><!--SRC=[XP71Ri8m44Jl_WfBd96Wg0MaNYXIrLvGLNgFJBmcLc9lkdP0qFRVImYjZ1FWklEyCxFEj0GEflGxRi2iW1npkRQb867uZ0YtSooGU4yfeKRZM7n6wsy22s60lq2n0QzJ4HCVcKvp2yxnkq1w4cc-9goiRDPx4jOT9B0-eEQ5S6xcFUbLvI488wUhYL8n6I_jZUHm_00j34a2dP31O227qnYvQNMrzp-nr7lWm_1e2_JGYjcoE59NKzP44B9Lz4-_cF5DIAdjcjy7i_Sc4rcWi_ao4nAtDQr4uK8Rvu40_Qw4UQiLJ2TIZJlXrqimI-lJSR6l298KJNduzaHgboVrC_x5sCy9CJebTAXyGk2melHCBJDXFPfExRD2By915nJRRR2e30GfElmVl_lz_gNiBDnmdOmMjfrY8cxBMlKRxjYSDVsRoT4lY1I4PBy0]--></g></svg>

<svg xmlns="http://www.w3.org/2000/svg" width="365" height="895" viewBox="0 0 365 895"><rect width="258" height="39.789" x="25" y="849.73" fill="#3D176E" rx="2.5" ry="2.5" style="stroke:#000d19;stroke-width:.5"/><circle cx="40" cy="869.625" r="11" fill="#ADD1B2" style="stroke:#181818;stroke-width:1"/><path d="M42.969 875.265q-.578.297-1.219.438-.64.156-1.344.156-2.5 0-3.828-1.64-1.312-1.657-1.312-4.782t1.312-4.781Q37.906 863 40.406 863q.703 0 1.344.156.656.156 1.219.453v2.719q-.625-.578-1.219-.844-.594-.281-1.219-.281-1.343 0-2.031 1.078-.687 1.062-.687 3.156t.687 3.172q.688 1.062 2.031 1.062.625 0 1.219-.265.594-.281 1.219-.86z"/><text x="59" y="875.51" fill="#D9B8FF" font-family="Helvetica" font-size="17" textLength="216">azure_compute_disk_type</text><rect width="200" height="39.789" x="7" y="267.57" fill="#3D176E" rx="2.5" ry="2.5" style="stroke:#000d19;stroke-width:.5"/><circle cx="22" cy="287.464" r="11" fill="#ADD1B2" style="stroke:#181818;stroke-width:1"/><path d="M24.969 293.105q-.578.297-1.219.438-.64.156-1.344.156-2.5 0-3.828-1.64-1.312-1.657-1.312-4.782t1.312-4.781q1.328-1.656 3.828-1.656.703 0 1.344.156.656.156 1.219.453v2.719q-.625-.579-1.219-.844-.594-.281-1.219-.281-1.343 0-2.031 1.078-.687 1.062-.687 3.156t.687 3.172q.688 1.062 2.031 1.062.625 0 1.219-.265.594-.281 1.219-.86z"/><text x="41" y="293.35" fill="#D9B8FF" font-family="Helvetica" font-size="17" textLength="158">microsoft_resource</text><rect width="198" height="39.789" x="160" y="167.79" fill="#3D176E" rx="2.5" ry="2.5" style="stroke:#000d19;stroke-width:.5"/><circle cx="175" cy="187.685" r="11" fill="#ADD1B2" style="stroke:#181818;stroke-width:1"/><path d="M177.969 193.325q-.578.297-1.219.438-.64.156-1.344.156-2.5 0-3.828-1.64-1.312-1.657-1.312-4.782t1.312-4.781q1.328-1.656 3.828-1.656.703 0 1.344.156.656.156 1.219.453v2.719q-.625-.578-1.219-.844-.594-.281-1.219-.281-1.344 0-2.031 1.078-.687 1.062-.687 3.156t.687 3.172q.688 1.062 2.031 1.062.625 0 1.219-.265.594-.281 1.219-.86z"/><text x="194" y="193.57" fill="#D9B8FF" font-family="Helvetica" font-size="17" textLength="156">phantom_resource</text><rect width="90" height="39.789" x="214" y="367.36" fill="#3D176E" rx="2.5" ry="2.5" style="stroke:#000d19;stroke-width:.5"/><circle cx="229" cy="387.255" r="11" fill="#ADD1B2" style="stroke:#181818;stroke-width:1"/><path d="M231.969 392.895q-.578.297-1.219.438-.64.156-1.344.156-2.5 0-3.828-1.64-1.312-1.657-1.312-4.782t1.312-4.781q1.328-1.656 3.828-1.656.703 0 1.344.156.656.156 1.219.453v2.719q-.625-.579-1.219-.844-.594-.281-1.219-.281-1.344 0-2.031 1.078-.687 1.062-.687 3.156t.687 3.172q.688 1.062 2.031 1.062.625 0 1.219-.265.594-.281 1.219-.86z"/><text x="248" y="393.14" fill="#D9B8FF" font-family="Helvetica" font-size="17" textLength="48">quota</text><rect width="113" height="39.789" x="85.5" y="7" fill="#3D176E" rx="2.5" ry="2.5" style="stroke:#000d19;stroke-width:.5"/><circle cx="100.5" cy="26.895" r="11" fill="#ADD1B2" style="stroke:#181818;stroke-width:1"/><path d="M103.469 32.535q-.578.297-1.219.438-.64.156-1.344.156-2.5 0-3.828-1.64-1.312-1.657-1.312-4.782t1.312-4.781q1.328-1.656 3.828-1.656.703 0 1.344.156.656.156 1.219.453v2.719q-.625-.578-1.219-.844-.594-.281-1.219-.281-1.344 0-2.031 1.078-.687 1.062-.687 3.156T99 29.879q.688 1.062 2.031 1.062.625 0 1.219-.265.594-.281 1.219-.86z"/><text x="119.5" y="32.78" fill="#D9B8FF" font-family="Helvetica" font-size="17" textLength="71">resource</text><rect width="79" height="39.789" x="210.5" y="528.15" fill="#3D176E" rx="2.5" ry="2.5" style="stroke:#000d19;stroke-width:.5"/><circle cx="225.5" cy="548.044" r="11" fill="#ADD1B2" style="stroke:#181818;stroke-width:1"/><path d="M228.469 553.685q-.578.297-1.219.438-.64.156-1.344.156-2.5 0-3.828-1.64-1.312-1.657-1.312-4.782t1.312-4.781q1.328-1.657 3.828-1.657.703 0 1.344.157.656.156 1.219.453v2.719q-.625-.579-1.219-.844-.594-.281-1.219-.281-1.344 0-2.031 1.078-.687 1.062-.687 3.156t.687 3.172q.688 1.062 2.031 1.062.625 0 1.219-.265.594-.282 1.219-.86z"/><text x="244.5" y="553.93" fill="#D9B8FF" font-family="Helvetica" font-size="17" textLength="37">type</text><rect width="151" height="39.789" x="171.5" y="688.94" fill="#3D176E" rx="2.5" ry="2.5" style="stroke:#000d19;stroke-width:.5"/><circle cx="186.5" cy="708.835" r="11" fill="#ADD1B2" style="stroke:#181818;stroke-width:1"/><path d="M189.469 714.475q-.578.297-1.219.438-.64.156-1.344.156-2.5 0-3.828-1.64-1.312-1.657-1.312-4.782t1.312-4.781q1.328-1.656 3.828-1.656.703 0 1.344.156.656.156 1.219.453v2.719q-.625-.578-1.219-.844-.594-.281-1.219-.281-1.344 0-2.031 1.078-.687 1.062-.687 3.156t.687 3.172q.688 1.062 2.031 1.062.625 0 1.219-.265.594-.281 1.219-.86z"/><text x="205.5" y="714.72" fill="#D9B8FF" font-family="Helvetica" font-size="17" textLength="109">volume_type</text><g fill="none"><path d="M111.037 325.64c3.45 32.73 7.963 83.37 7.963 141.51v242.69c0 51.37 17.69 109.96 27.92 139.53" style="stroke:#ffaf37;stroke-width:2"/><path d="m109.15 307.74-4.08 18.53 11.934-1.258z" style="stroke:#ffaf37;stroke-width:2"/></g><g fill="none"><path d="M226.685 744.523c-17.87 30.52-43.525 74.317-61.425 104.877" style="stroke:#ffaf37;stroke-width:2"/><path d="m235.78 728.99-14.273 12.502 10.356 6.063z" style="stroke:#ffaf37;stroke-width:2"/></g><g fill="none"><path d="M137.015 64.737c-6.46 47.71-20.875 154.233-27.395 202.343" style="stroke:#ffaf37;stroke-width:2"/><path d="m139.43 46.9-8.36 17.032 11.89 1.61z" style="stroke:#ffaf37;stroke-width:2"/></g><g fill="none"><path d="M166.788 61.53c22.49 30.52 55.532 75.37 78.052 105.93" style="stroke:#ffaf37;stroke-width:2"/><path d="m156.11 47.04 5.848 18.05 9.66-7.119z" style="stroke:#ffaf37;stroke-width:2"/></g><path fill="none" d="M259 225.98v140.9m0-158.9-6 18h12z" style="stroke:#ffaf37;stroke-width:2"/><g fill="none"><path d="M256.891 425.381c-1.73 30.52-4.071 71.879-5.801 102.449" style="stroke:#ffaf37;stroke-width:2"/><path d="m257.91 407.41-7.01 17.632 11.982.679z" style="stroke:#ffaf37;stroke-width:2"/></g><path fill="none" d="M249.298 586.197c-.58 30.52-1.358 71.853-1.938 102.413m2.28-120.41-6.34 17.883 11.997.228z" style="stroke:#ffaf37;stroke-width:2"/></svg>
